Newaita-dark/actions/16/go-next.svg

<svg height="16" viewBox="0 0 16 16" width="16" xmlns="http://www.w3.org/2000/svg"><g fill="#e0e0e0"><path d="m3.308594 7.402344h9.261718c.363282 0 .660157.296875.660157.660156 0 .367188-.296875.664062-.660157.664062h-9.261718c-.367188 0-.664063-.296874-.664063-.664062 0-.363281.296875-.660156.664063-.660156zm0 0"/><path d="m7.421875 12.273438 4.679687-4.675782c.257813-.261718.675782-.261718.933594 0 .261719.257813.261719.675782 0 .933594l-4.675781 4.679688c-.257813.257812-.675781.257812-.9375 0-.257813-.261719-.257813-.679688 0-.9375zm0 0"/><path d="m8.359375 2.917969 4.675781 4.675781c.261719.257812.261719.679688 0 .9375-.257812.257812-.675781.257812-.933594 0l-4.679687-4.679688c-.257813-.257812-.257813-.675781 0-.933593.261719-.257813.679687-.257813.9375 0zm0 0"/></g></svg>

<?xml version="1.0" encoding="UTF-8"?>
<svg xmlns="http://www.w3.org/2000/svg" xmlns:xlink="http://www.w3.org/1999/xlink" width="16px" height="16px" viewBox="0 0 16 16" version="1.1">
<g id="surface1">
<path style=" stroke:none;fill-rule:nonzero;fill:rgb(87.843138%,87.843138%,87.843138%);fill-opacity:1;" d="M 3.308594 7.402344 L 12.570312 7.402344 C 12.933594 7.402344 13.230469 7.699219 13.230469 8.0625 C 13.230469 8.429688 12.933594 8.726562 12.570312 8.726562 L 3.308594 8.726562 C 2.941406 8.726562 2.644531 8.429688 2.644531 8.0625 C 2.644531 7.699219 2.941406 7.402344 3.308594 7.402344 Z M 3.308594 7.402344 "/>
<path style=" stroke:none;fill-rule:nonzero;fill:rgb(87.843138%,87.843138%,87.843138%);fill-opacity:1;" d="M 7.421875 12.273438 L 12.101562 7.597656 C 12.359375 7.335938 12.777344 7.335938 13.035156 7.597656 C 13.296875 7.855469 13.296875 8.273438 13.035156 8.53125 L 8.359375 13.210938 C 8.101562 13.46875 7.683594 13.46875 7.421875 13.210938 C 7.164062 12.949219 7.164062 12.53125 7.421875 12.273438 Z M 7.421875 12.273438 "/>
<path style=" stroke:none;fill-rule:nonzero;fill:rgb(87.843138%,87.843138%,87.843138%);fill-opacity:1;" d="M 8.359375 2.917969 L 13.035156 7.59375 C 13.296875 7.851562 13.296875 8.273438 13.035156 8.53125 C 12.777344 8.789062 12.359375 8.789062 12.101562 8.53125 L 7.421875 3.851562 C 7.164062 3.59375 7.164062 3.175781 7.421875 2.917969 C 7.683594 2.660156 8.101562 2.660156 8.359375 2.917969 Z M 8.359375 2.917969 "/>
</g>
</svg>
